public/avatar/body/248.svg

<svg xmlns:xlink="http://www.w3.org/1999/xlink" height="82" width="84.85" xmlns="http://www.w3.org/2000/svg"><g transform="translate(37.4 42.25)"><use height="38" transform="translate(-11.95 -17.45)" width="32.05" xlink:href="#a"/><use height="38.95" transform="translate(-12.45 -17.95)" width="33.05" xlink:href="#b"/><use height="36.8" transform="translate(-11.5 -16.55)" width="30.3" xlink:href="#c"/></g><defs><path d="M27.35 7.4q2.15 4.15 3.55 8.75 1.45 4.7 1.15 9.5-.35 4.95-4.2 8.1-3.8 3.2-8.75 4.05l-2.6.2q-3.6 0-7.05-1.15-4.65-1.6-7.1-5.5Q-.2 27.4.05 23q.2-4.4 2-9.3Q3.85 8.75 7 5.05 10.1 1.3 14.7.1l1.8-.1q1.9.05 3.7.8 4.75 2.05 7.15 6.6" fill="#434768" fill-rule="evenodd" transform="translate(-.05)" id="d"/><path d="M27.35 7.4Q24.95 2.85 20.2.8 17.55-.3 14.7.1 10.1 1.3 7 5.05q-3.15 3.7-4.95 8.65-1.8 4.9-2 9.3-.25 4.4 2.3 8.35 2.45 3.9 7.1 5.5 4.65 1.55 9.65.95 4.95-.85 8.75-4.05 3.85-3.15 4.2-8.1.3-4.8-1.15-9.5-1.4-4.6-3.55-8.75Z" fill="none" stroke="#000" stroke-linecap="round" stroke-linejoin="round" transform="translate(.45 .5)" id="e"/><use height="38" width="32.05" xlink:href="#d" id="a"/><use height="38.95" width="33.05" xlink:href="#e" id="b"/><g id="c" fill-rule="evenodd"><path d="M-1.95-14.2q1.3-.85 1.3-.5-.8 1.15-1.2 3.6-.15.85-.85 2.7-.7 1.6-.75 2.7Q-3.5-3.85-3-.2q0 4.15.7 5.9.65 1.65 3.15 4.15Q2.6 12.5 2.9 14.5q.45 2.7-2.3 3.6-2.35.8-4.85-.05-2.15-.75-4.6-4.4-1.4-1.95-1.4-6.8 0-7.35.65-8.85v-.05l1.15-4.05q.6-2.5 1.65-3.75 2.1-2.6 4.85-4.35" fill="#4e537a" transform="translate(11.5 16.55)"/><path d="M8.7-15q1.4 1.4 4.7 3.45 1.2 1.05 2.1 3.2l1.35 3.6q1.6 3.9 1.95 9.8.35 7.55-5.1 11.8-4.4 3.4-9.9 3.4-7.7 0-10.25-4.35l.6-.4q2.55 1.7 7.15 2.1 5.6.45 8.15-2.3 3.25-3.6-2.8-9.8 1.45-.45 6.3-1.55 3.45-1.5-.15-4.6.5-1.6.5-3.1 0-2.7-1.65-6.2Q10.05-13.5 8.7-15" fill="#292d54" transform="translate(11.5 16.55)"/><path d="M10.85 12.2q-1.1 7.4-6.65 7.4-2.7 0-4.55-2.2-1.8-2.05-2.1-5.2-.4-3.8.85-5.4 1.45-1.95 5.8-1.95 7.9 0 6.65 7.35" fill="#d4d4d4" transform="translate(11.5 16.55)"/><path d="M6.45 9.65Q5.4 12.9 2.05 14.1l-3-.05q-1.35-.7-1.35-2.45 0-3.2.75-4.4 1.35-2 5.55-2 1.8 0 2.45 1.4.65 1.3 0 3.05" fill="#f8fff8" transform="translate(11.5 16.55)"/><path d="M5.45 15.05q0 .8-.9.8-.95 0-.95-.8t.95-.8q.9 0 .9.8" fill="#292d54" transform="translate(11.5 16.55)"/><path d="m-5.4-11.35 2.45-2.45q2.9-2.5 5.15-2.75-3.1 1.4-5.75 4.6Q-8.9-5.6-10 .95q-1 6.35-1.05 9.1l-.4-3.45q-.75-9.9 6.05-17.95" fill="#83869c" transform="translate(11.5 16.55)"/><path d="m3.65 19.6 1.2-.15q1.5-.6 3.2-2.75 2.7-3.35 3-6.55.3 3.65-2 6.9-1.45 2.05-3.55 2.5l-1.85.05" fill="#aaadc2" transform="translate(11.5 16.55)"/></g></defs></svg>

<?xml version="1.0" encoding="UTF-8" standalone="no"?>
<svg xmlns:xlink="http://www.w3.org/1999/xlink" height="82.0px" width="84.85px" xmlns="http://www.w3.org/2000/svg">
  <g transform="matrix(1.0, 0.0, 0.0, 1.0, 37.4, 42.25)">
    <use height="38.0" transform="matrix(1.0, 0.0, 0.0, 1.0, -11.95, -17.45)" width="32.05" xlink:href="#sprite0"/>
    <use height="38.95" transform="matrix(1.0, 0.0, 0.0, 1.0, -12.45, -17.95)" width="33.05" xlink:href="#sprite1"/>
    <use height="36.8" transform="matrix(1.0, 0.0, 0.0, 1.0, -11.5, -16.55)" width="30.3" xlink:href="#shape2"/>
  </g>
  <defs>
    <g id="sprite0" transform="matrix(1.0, 0.0, 0.0, 1.0, -0.05, 0.0)">
      <use height="38.0" transform="matrix(1.0, 0.0, 0.0, 1.0, 0.05, 0.0)" width="32.05" xlink:href="#shape0"/>
    </g>
    <g id="shape0" transform="matrix(1.0, 0.0, 0.0, 1.0, -0.05, 0.0)">
      <path d="M27.35 7.4 Q29.5 11.55 30.9 16.15 32.35 20.85 32.05 25.65 31.7 30.6 27.85 33.75 24.05 36.95 19.1 37.8 L16.5 38.0 Q12.9 38.0 9.45 36.85 4.8 35.25 2.35 31.35 -0.2 27.4 0.05 23.0 0.25 18.6 2.05 13.7 3.85 8.75 7.0 5.05 10.1 1.3 14.7 0.1 L16.5 0.0 Q18.4 0.05 20.2 0.8 24.95 2.85 27.35 7.4" fill="#434768" fill-rule="evenodd" stroke="none"/>
    </g>
    <g id="sprite1" transform="matrix(1.0, 0.0, 0.0, 1.0, 0.45, 0.5)">
      <use height="38.95" transform="matrix(1.0, 0.0, 0.0, 1.0, -0.45, -0.5)" width="33.05" xlink:href="#shape1"/>
    </g>
    <g id="shape1" transform="matrix(1.0, 0.0, 0.0, 1.0, 0.45, 0.5)">
      <path d="M27.35 7.4 Q24.95 2.85 20.2 0.8 17.55 -0.3 14.7 0.1 10.1 1.3 7.0 5.05 3.85 8.75 2.05 13.7 0.25 18.6 0.05 23.0 -0.2 27.4 2.35 31.35 4.8 35.25 9.45 36.85 14.1 38.4 19.1 37.8 24.05 36.95 27.85 33.75 31.7 30.6 32.05 25.65 32.35 20.85 30.9 16.15 29.5 11.55 27.35 7.4 Z" fill="none" stroke="#000000" stroke-linecap="round" stroke-linejoin="round" stroke-width="1.0"/>
    </g>
    <g id="shape2" transform="matrix(1.0, 0.0, 0.0, 1.0, 11.5, 16.55)">
      <path d="M-1.95 -14.2 Q-0.65 -15.05 -0.65 -14.7 -1.45 -13.55 -1.85 -11.1 -2.0 -10.25 -2.7 -8.4 -3.4 -6.8 -3.45 -5.7 -3.5 -3.85 -3.0 -0.2 -3.0 3.95 -2.3 5.7 -1.65 7.35 0.85 9.85 2.6 12.5 2.9 14.5 3.35 17.2 0.6 18.1 -1.75 18.9 -4.25 18.05 -6.4 17.3 -8.85 13.65 -10.25 11.7 -10.25 6.85 -10.25 -0.5 -9.6 -2.0 L-9.6 -2.05 -8.45 -6.1 Q-7.85 -8.6 -6.8 -9.85 -4.7 -12.45 -1.95 -14.2" fill="#4e537a" fill-rule="evenodd" stroke="none"/>
      <path d="M8.7 -15.0 Q10.1 -13.6 13.4 -11.55 14.6 -10.5 15.5 -8.35 L16.85 -4.75 Q18.45 -0.85 18.8 5.05 19.15 12.6 13.7 16.85 9.3 20.25 3.8 20.25 -3.9 20.25 -6.45 15.9 L-5.85 15.5 Q-3.3 17.2 1.3 17.6 6.9 18.05 9.45 15.3 12.7 11.7 6.65 5.5 8.1 5.05 12.95 3.95 16.4 2.45 12.8 -0.65 13.3 -2.25 13.3 -3.75 13.3 -6.45 11.65 -9.95 10.05 -13.5 8.7 -15.0" fill="#292d54" fill-rule="evenodd" stroke="none"/>
      <path d="M10.85 12.2 Q9.75 19.6 4.2 19.6 1.5 19.6 -0.35 17.4 -2.15 15.35 -2.45 12.2 -2.85 8.4 -1.6 6.8 -0.15 4.85 4.2 4.85 12.1 4.85 10.85 12.2" fill="#d4d4d4" fill-rule="evenodd" stroke="none"/>
      <path d="M6.45 9.65 Q5.4 12.9 2.05 14.1 L-0.95 14.05 Q-2.3 13.35 -2.3 11.6 -2.3 8.4 -1.55 7.2 -0.2 5.2 4.0 5.2 5.8 5.2 6.45 6.6 7.1 7.9 6.45 9.65" fill="#f8fff8" fill-rule="evenodd" stroke="none"/>
      <path d="M5.45 15.05 Q5.45 15.85 4.55 15.85 3.6 15.85 3.6 15.05 3.6 14.25 4.55 14.25 5.45 14.25 5.45 15.05" fill="#292d54" fill-rule="evenodd" stroke="none"/>
      <path d="M-5.4 -11.35 L-2.95 -13.8 Q-0.05 -16.3 2.2 -16.55 -0.9 -15.15 -3.55 -11.95 -8.9 -5.6 -10.0 0.95 -11.0 7.3 -11.05 10.05 L-11.45 6.6 Q-12.2 -3.3 -5.4 -11.35" fill="#83869c" fill-rule="evenodd" stroke="none"/>
      <path d="M3.65 19.6 L4.85 19.45 Q6.35 18.85 8.05 16.7 10.75 13.35 11.05 10.15 11.35 13.8 9.05 17.05 7.6 19.1 5.5 19.55 L3.65 19.6" fill="#aaadc2" fill-rule="evenodd" stroke="none"/>
    </g>
  </defs>
</svg>
